X: 26208
T: Me Mother's
R: jig
M: 6/8
K: Gmajor
d2 G F2 A|G2 B AcA|BdB c2 e|d2 g faf|
g2 G F2 A|G2 B AcA|B2 d c2 e|def g2:|
g2 b f2 a|efg d2 B|c2 e B2 d|ABA B2 d|
g2 b f2 a|ege dcB|c2 e d2 B|G2 g g2:|
d2 g e2 g|d2 g e3|d2 d B2 G|A2 G FED|
d2 g e2 g|d2 g e3|d2 d dba|g2 f g2:|

